icons/vitejs.svg

<?xml version="1.0" encoding="UTF-8"?>
<svg width="256px" height="257px" viewBox="0 0 256 257" version="1.1" xmlns="http://www.w3.org/2000/svg" preserveAspectRatio="xMidYMid">
	<defs>
		<linearGradient x1="-0.828097821%" y1="7.6518539%" x2="57.6359644%" y2="78.4107719%" id="linearGradient-1">
			<stop stop-color="#41D1FF" offset="0%"></stop>
			<stop stop-color="#BD34FE" offset="100%"></stop>
		</linearGradient>
		<linearGradient x1="43.3760053%" y1="2.24179788%" x2="50.3158848%" y2="89.0299051%" id="linearGradient-2">
			<stop stop-color="#FFEA83" offset="0%"></stop>
			<stop stop-color="#FFDD35" offset="8.33333%"></stop>
			<stop stop-color="#FFA800" offset="100%"></stop>
		</linearGradient>
	</defs>
	<g>
		<path
				d="M255.152904,37.937763 L134.896865,252.97646 C132.413943,257.416178 126.035075,257.442321 123.5149,253.02417 L0.87443175,37.9584812 C-1.87111536,33.1438084 2.24595371,27.3119153 7.70191187,28.2871109 L128.086639,49.8052023 C128.854587,49.9424525 129.640835,49.9411454 130.408783,49.8012155 L248.276014,28.3179595 C253.713738,27.3268821 257.850198,33.1136134 255.152904,37.937763 Z"
				fill="url(#linearGradient-1)"></path>
		<path
				d="M185.432401,0.0631038902 L96.4393502,17.500942 C94.9766549,17.7875335 93.8936852,19.0270992 93.8054529,20.5146956 L88.3311293,112.971419 C88.2023755,115.149123 90.2023075,116.839261 92.3277254,116.349082 L117.10466,110.630976 C119.422882,110.096354 121.517582,112.138114 121.041128,114.469407 L113.67994,150.515893 C113.184532,152.941955 115.462232,155.016394 117.831433,154.29681 L133.134834,149.647295 C135.507302,148.927059 137.786963,151.00738 137.285019,153.435402 L125.586724,210.056351 C124.854723,213.598061 129.565674,215.529368 131.530313,212.49287 L132.842687,210.464834 L205.359174,65.745575 C206.573511,63.3224548 204.479465,60.5594769 201.818118,61.0730542 L176.31441,65.9952397 C173.91776,66.4573155 171.878614,64.2253653 172.555061,61.8805431 L189.2009,4.17570253 C189.878001,1.82692623 187.831665,-0.406957894 185.432401,0.0631038902 Z"
				fill="url(#linearGradient-2)"></path>
	</g>
</svg>

<svg xmlns="http://www.w3.org/2000/svg" width="256" height="257" preserveAspectRatio="xMidYMid"><defs><linearGradient id="a" x1="-.828%" x2="57.636%" y1="7.652%" y2="78.411%"><stop offset="0%" stop-color="#41D1FF"/><stop offset="100%" stop-color="#BD34FE"/></linearGradient><linearGradient id="b" x1="43.376%" x2="50.316%" y1="2.242%" y2="89.03%"><stop offset="0%" stop-color="#FFEA83"/><stop offset="8.333%" stop-color="#FFDD35"/><stop offset="100%" stop-color="#FFA800"/></linearGradient></defs><path fill="url(#a)" d="M255.153 37.938 134.897 252.976c-2.483 4.44-8.862 4.466-11.382.048L.875 37.958c-2.746-4.814 1.371-10.646 6.827-9.67l120.385 21.517a6.5 6.5 0 0 0 2.322-.004l117.867-21.483c5.438-.991 9.574 4.796 6.877 9.62"/><path fill="url(#b)" d="M185.432.063 96.44 17.501a3.27 3.27 0 0 0-2.634 3.014l-5.474 92.456a3.268 3.268 0 0 0 3.997 3.378l24.777-5.718c2.318-.535 4.413 1.507 3.936 3.838l-7.361 36.047c-.495 2.426 1.782 4.5 4.151 3.78l15.304-4.649c2.372-.72 4.652 1.36 4.15 3.788l-11.698 56.621c-.732 3.542 3.979 5.473 5.943 2.437l1.313-2.028 72.516-144.72c1.215-2.423-.88-5.186-3.54-4.672l-25.505 4.922c-2.396.462-4.435-1.77-3.759-4.114l16.646-57.705c.677-2.35-1.37-4.583-3.769-4.113"/></svg>
